X:420
T:Ferry Reel, Da
B:Haand Me Doon da Fiddle (1979)
Z:Nigel Gatherer
M:4/4
L:1/8
K:D
A2 | d2 dA d2 d2 | efed c2 A2 | BcdB  ABAF  | G2 E2 E3
A  | d2 dA d2 d2 | efed c2 A2 | BcdB  AGFE  | D2 d2 d2  :|
e2 | f2 fd f2 fd | fgag fedf  | e2 ec e2 ec | efed  cBAg |
     f2 fd f2 fd | fgag fedf  | efgf  edcB  | A2 d2 d2  :|
<end>
<start>
